X:1
T:Title
%%score 1 { 2 | 3 }
L:1/8
Q:1/4=95
M:4/4
K:D
V:1 treble nm="Grand Piano, Soprano"
V:2 bass nm="Choir Pad, Sing to Me of Jesus� Love"
V:3 bass 
V:1
 [EG]2 [DF]2- [DF][DF][EG][CE] | [GB]>[FA] [FA]4 [EG]2 | [FA]2 [FA]2- [FA][EG][DF][CE] | %3
w: By~Edward~S.~Fogg * * * * *|||
 [DF][EG] [DF]6 | [DF]2 [DF]2- [DF][DF][EG][CE] | [GB]>[FA] [FA]4 [DF]2 | %6
w: |||
 [DF]2 [CE]2- [CE][DF][D^G][CA] | [DB][Ec] [CA]6 | (3A[^GB][=Gc] [Fd]6 | (3[Ge][Fd][Ac] [GB]6 | %10
w: ||||
 [GB]>[Gd] [Ec]2- [Ec][EG] [Gc]2 | [GB]2 [FA]6 | (3A[^GB][=Gc] [Fd]6 | (3[Ge][Fd][Ac] [GB]6 | %14
w: ||||
 [GB]>[Gd] [Gc]2- [Gc][Gc] [GB]2 | [Gc]2 [Fd]6- | [Fd]2 z2 z4 |] %17
w: |||
V:2
 z2 D,,2 A,2 A,,2 | C2 D,,2 A,2 A,2 | A,2 A,,2 C2 A,,2 | C2 D,,2 A,2 A,2 | A,2 D,,2 A,2 A,,2 | %5
 C2 F,,2 A,2 A,2 | A,2 E,,2 B,2 E,,2 | D2 A,,6 | z2 z[K:treble] D (3DDD D2 | z2 z D (3DDD D2 | %10
 D>[K:bass]B, A,2- A,/ z/ A, A,2 | C2 D6 | z2 z D (3DDD D2 | z2 z D (3DDD D2 | %14
 D>[K:bass]B, A,2- A,/ z/ A, A,2 | A,2 A,6- | A, z z2 z4 |] %17
V:3
 z4 [D,F,]2 z2 | [E,G,A,]2 z2 [D,F,]2 [D,F,]2 | [D,F,]2 z2 [E,G,A,]2 z2 | %3
 [E,G,A,]2 z2 [D,F,]2 [D,F,]2 | [D,F,]2 z2 [D,F,]2 z2 | [E,G,A,]2 z2 [D,F,]2 [D,F,]2 | %6
 [D,F,]2 z2 [E,A,]2 z2 | [E,^G,]2 A,,,6 | z2 z D, (3D,D,D, D,2 | z2 z G, (3G,G,G, G,2 | %10
 G,>G, z2 z2 A,,2 | A,,2 D,6 | z2 z D, (3D,D,D, D,2 | z2 z G, (3G,G,G, G,2 | G,>G, z2 z2 A,,2 | %15
 A,,2 D,6- | D, z z2 z4 |] %17

